svg/design/mirror_line.svg

<?xml version="1.0" encoding="UTF-8"?>
<svg width="24px" height="24px" viewBox="0 0 24 24" version="1.1" xmlns="http://www.w3.org/2000/svg" xmlns:xlink="http://www.w3.org/1999/xlink">
    <title>mirror_line</title>
    <g id="Icon" stroke="none" stroke-width="1" fill="none" fill-rule="evenodd">
        <g id="Design" transform="translate(0.000000, -480.000000)">
            <g id="mirror_line" transform="translate(0.000000, 480.000000)">
                <path d="M24,0 L24,24 L0,24 L0,0 L24,0 Z M12.5935,23.2578 L12.5819,23.2595 L12.5109,23.295 L12.4919,23.2987 L12.4767,23.295 L12.4057,23.2595 C12.3958,23.2564 12.387,23.259 12.3821,23.2649 L12.378,23.2758 L12.3609,23.7031 L12.3659,23.7235 L12.3769,23.7357 L12.4805,23.8097 L12.4953,23.8136 L12.5071,23.8097 L12.6107,23.7357 L12.6233,23.7197 L12.6267,23.7031 L12.6096,23.2758 C12.6076,23.2657 12.601,23.2593 12.5935,23.2578 Z M12.8584,23.1453 L12.8445,23.1473 L12.6598,23.2397 L12.6499,23.2499 L12.6472,23.2611 L12.6651,23.6906 L12.6699,23.7034 L12.6784,23.7105 L12.8793,23.8032 C12.8914,23.8069 12.9022,23.803 12.9078,23.7952 L12.9118,23.7812 L12.8777,23.1665 C12.8753,23.1546 12.8674,23.147 12.8584,23.1453 Z M12.143,23.1473 C12.1332,23.1424 12.1222,23.1453 12.1156,23.1526 L12.1099,23.1665 L12.0758,23.7812 C12.0751,23.7927 12.0828,23.8019 12.0926,23.8046 L12.1083,23.8032 L12.3092,23.7105 L12.3186,23.7024 L12.3225,23.6906 L12.3404,23.2611 L12.3372,23.2485 L12.3278,23.2397 L12.143,23.1473 Z" id="MingCute" fill-rule="nonzero"></path>
                <path d="M13,3 C13,2.44772 12.5523,2 12,2 C11.4477,2 11,2.44772 11,3 L11,21 C11,21.5523 11.4477,22 12,22 C12.5523,22 13,21.5523 13,21 L13,3 Z M3,6 C3,4.89543 3.89543,4 5,4 L9,4 L9,6 L5,6 L5,18 L9,18 L9,20 L5,20 C3.89543,20 3,19.1046 3,18 L3,6 Z M14,5 C14,4.44772 14.4477,4 15,4 L16,4 C16.5523,4 17,4.44772 17,5 C17,5.55228 16.5523,6 16,6 L15,6 C14.4477,6 14,5.55228 14,5 Z M18,5 C18,4.44772 18.4477,4 19,4 C20.1046,4 21,4.89543 21,6 C21,6.55228 20.5523,7 20,7 C19.4477,7 19,6.55228 19,6 C18.4477,6 18,5.55228 18,5 Z M20,8 C20.5523,8 21,8.44772 21,9 L21,10 C21,10.5523 20.5523,11 20,11 C19.4477,11 19,10.5523 19,10 L19,9 C19,8.44772 19.4477,8 20,8 Z M20,13 C20.5523,13 21,13.4477 21,14 L21,15 C21,15.5523 20.5523,16 20,16 C19.4477,16 19,15.5523 19,15 L19,14 C19,13.4477 19.4477,13 20,13 Z M20,17 C20.5523,17 21,17.4477 21,18 C21,19.1046 20.1046,20 19,20 C18.4477,20 18,19.5523 18,19 C18,18.4477 18.4477,18 19,18 C19,17.4477 19.4477,17 20,17 Z M14,19 C14,18.4477 14.4477,18 15,18 L16,18 C16.5523,18 17,18.4477 17,19 C17,19.5523 16.5523,20 16,20 L15,20 C14.4477,20 14,19.5523 14,19 Z" id="形状" fill="#09244B"></path>
            </g>
        </g>
    </g>
</svg>

<svg xmlns="http://www.w3.org/2000/svg" width="24" height="24"><g fill="none" fill-rule="evenodd"><path d="M24 0v24H0V0h24ZM12.594 23.258l-.012.002-.071.035-.02.004-.014-.004-.071-.036c-.01-.003-.019 0-.024.006l-.004.01-.017.428.005.02.01.013.104.074.015.004.012-.004.104-.074.012-.016.004-.017-.017-.427c-.002-.01-.009-.017-.016-.018Zm.264-.113-.014.002-.184.093-.01.01-.003.011.018.43.005.012.008.008.201.092c.012.004.023 0 .029-.008l.004-.014-.034-.614c-.003-.012-.01-.02-.02-.022Zm-.715.002a.023.023 0 0 0-.027.006l-.006.014-.034.614c0 .012.007.02.017.024l.015-.002.201-.093.01-.008.003-.011.018-.43-.003-.012-.01-.01-.184-.092Z"/><path fill="#09244B" d="M13 3a1 1 0 1 0-2 0v18a1 1 0 1 0 2 0V3ZM3 6a2 2 0 0 1 2-2h4v2H5v12h4v2H5a2 2 0 0 1-2-2V6Zm11-1a1 1 0 0 1 1-1h1a1 1 0 1 1 0 2h-1a1 1 0 0 1-1-1Zm4 0a1 1 0 0 1 1-1 2 2 0 0 1 2 2 1 1 0 1 1-2 0 1 1 0 0 1-1-1Zm2 3a1 1 0 0 1 1 1v1a1 1 0 1 1-2 0V9a1 1 0 0 1 1-1Zm0 5a1 1 0 0 1 1 1v1a1 1 0 1 1-2 0v-1a1 1 0 0 1 1-1Zm0 4a1 1 0 0 1 1 1 2 2 0 0 1-2 2 1 1 0 1 1 0-2 1 1 0 0 1 1-1Zm-6 2a1 1 0 0 1 1-1h1a1 1 0 1 1 0 2h-1a1 1 0 0 1-1-1Z"/></g></svg>
